src/assets/logo.svg

<svg viewBox="0 0 211 68" xmlns="http://www.w3.org/2000/svg">
  <path
    d="M20.0745 34.6485L8.84014 46.1362V62.2561H0V0H8.84014V34.8338L42.359 0H52.4883L26.1521 27.9782L54.33 62.2561H44.0165L20.0745 34.6485Z"
  />
  <path
    d="M118.789 57.2534L122.289 50.5831C126.34 53.3624 132.602 55.4005 138.68 55.4005C146.599 55.4005 149.73 52.9918 149.73 48.9155C149.73 38.3542 120.078 47.4332 120.078 28.7193C120.078 20.1962 127.629 14.6376 139.6 14.6376C145.678 14.6376 152.676 16.3052 156.728 18.8992L153.045 25.5695C148.809 22.7902 144.205 21.8638 139.6 21.8638C132.234 21.8638 128.55 24.6431 128.55 28.3488C128.55 39.4659 158.202 30.3869 158.202 48.7302C158.202 57.2534 150.466 62.6267 137.943 62.6267C130.392 62.812 122.657 60.4033 118.789 57.2534Z"
  />
  <path
    d="M210.322 33.7221V62.2561H202.218V55.9564C199.456 60.218 194.115 62.6267 186.748 62.6267C176.066 62.6267 169.436 56.8828 169.436 48.7302C169.436 41.1335 174.224 35.0191 188.221 35.0191H201.666V33.3515C201.666 26.1253 197.43 22.049 189.142 22.049C183.617 22.049 177.908 24.0872 174.224 27.0518L170.725 20.5668C175.514 16.6758 182.512 14.4523 190.063 14.4523C203.139 14.6376 210.322 20.9373 210.322 33.7221ZM201.85 47.8038V41.1335H188.774C180.302 41.1335 177.908 44.4687 177.908 48.3597C177.908 52.9918 181.775 55.9564 188.221 55.9564C194.667 56.1417 199.824 53.3624 201.85 47.8038Z"
  />
  <path d="M91.5323 49.842V62.4414L96.8732 59.2916V46.6921L91.5323 49.842Z" />
  <path
    d="M106.266 34.4632L84.3497 21.6785L72.1945 14.6376L60.2234 35.5749L60.4076 55.2153L82.1396 68L84.3497 66.703V48.1744L94.1106 30.9428L104.056 36.6866V55.2153L106.266 53.9183V34.4632Z"
  />
</svg>

<svg viewBox="0 0 210.322 68" xmlns="http://www.w3.org/2000/svg">
   <path d="M20.075 34.648 8.84 46.136v16.12H0V0h8.84v34.834L42.36 0h10.13L26.151 27.978 54.33 62.256H44.017Zm98.714 22.605 3.5-6.67c4.051 2.78 10.313 4.818 16.391 4.818 7.919 0 11.05-2.41 11.05-6.486 0-10.56-29.652-1.482-29.652-20.196 0-8.523 7.551-14.081 19.522-14.081 6.078 0 13.076 1.667 17.128 4.261l-3.683 6.67c-4.236-2.779-8.84-3.705-13.445-3.705-7.366 0-11.05 2.78-11.05 6.485 0 11.117 29.652 2.038 29.652 20.381 0 8.523-7.736 13.897-20.259 13.897-7.551.185-15.286-2.224-19.154-5.374zm91.533-23.531v28.534h-8.104v-6.3c-2.762 4.262-8.103 6.67-15.47 6.67-10.682 0-17.312-5.743-17.312-13.896 0-7.597 4.788-13.71 18.785-13.71h13.445v-1.67c0-7.226-4.236-11.302-12.524-11.302-5.525 0-11.234 2.038-14.918 5.003l-3.499-6.485c4.789-3.891 11.787-6.115 19.338-6.115 13.076.186 20.259 6.485 20.259 19.27zm-8.472 14.082v-6.67h-13.076c-8.472 0-10.866 3.335-10.866 7.226 0 4.632 3.867 7.596 10.313 7.596 6.446.186 11.603-2.594 13.629-8.152zM91.532 49.842v12.6l5.341-3.15v-12.6Z"/>
   <path d="M106.266 34.463 84.35 21.678l-12.155-7.04-11.972 20.937.185 19.64L82.14 68l2.21-1.297V48.174l9.76-17.231 9.946 5.744v18.528l2.21-1.297z"/>
</svg>
